X:129
T:Wigmore's Galliard
M:3/4
L:1/8
K:Ab
%%score 1 2
V:1 clef-treble
V:2 clef-bass octave=-1
V:1
C2|(A2>B2)A2&[CF]2x2[CF]2|([B,FG]2[CFA]2)[DFB]2|(c2>B2) (cd)&[CA]2x2[FA]2|[EAe]4A2|(A2>B2)A2&[DF]2x2E2|
w:You pa-*rents, whose* af-fec-*tion* fond Up on* your
V:2
z2|F4F2|F2F2F2|F4F2|C6|D4C2|
V:1
([DFB]2[CA]2) (BA)|(G2>F2) (E=D)&=E2x4|=E4C2|(A2>B2)[CFA]2&[CF]2x4|([B,FG]2[CFA]2)[DFB]2|(d2>c2) ([FAc]d)&[CA]2x4|
w:chil-*dren* doth* ap-*pear, Mark well* the sto-*ry now* in*
V:2
(B,2F,2)z2|C6|C4z2|F4F2|F2F2F2|F4F2|
V:1
[_GAe]4[FAd]2|[EAc]4[CEB]2|([DFA]2[DF=G]2)[B,EB]2|([CFA]2>[B,G]2) ([A,F][G,=E])|[A,F]4||
w:hand, Where-in you shall* great mat-*ters* hear. 
V:2
C4D2|A4_G2|F2B,2D2|C4C2|F,4||

